picto/tracks-59-fr-small-framed.svg

<svg class="color-immutable" width="30" height="30" viewBox="0 0 30 30" fill="none" xmlns="http://www.w3.org/2000/svg"><path d="M30 0H0V30H30V0Z" fill="#2D327D"/><path d="M25.5 3C26.325 3 27 3.675 27 4.5V25.5C27 26.325 26.325 27 25.5 27H4.5C3.675 27 3 26.325 3 25.5V4.5C3 3.675 3.675 3 4.5 3H25.5ZM25.5 2.625H4.5C3.46613 2.625 2.625 3.46613 2.625 4.5V25.5C2.625 26.5339 3.46613 27.375 4.5 27.375H25.5C26.5339 27.375 27.375 26.5339 27.375 25.5V4.5C27.375 3.46613 26.5339 2.625 25.5 2.625Z" fill="white"/><path d="M13.7142 12.7566V14.7561H9.18453L8.70003 17.2863C9.2434 16.7122 9.9382 16.425 10.7841 16.425C11.6147 16.425 12.3376 16.6481 12.9528 17.0941C13.8654 17.7658 14.3217 18.786 14.3217 20.1549C14.3217 21.4982 13.8346 22.562 12.8606 23.3465C12.1017 23.9617 11.1943 24.2693 10.1382 24.2693C8.94865 24.2693 7.99255 23.9502 7.26963 23.3118C6.5467 22.6736 6.16473 21.811 6.12378 20.724H8.33095C8.3668 21.1189 8.49498 21.4546 8.71548 21.7315C9.0589 22.1674 9.53575 22.3852 10.1459 22.3852C10.7354 22.3852 11.202 22.1725 11.5455 21.7469C11.8788 21.3316 12.0454 20.8266 12.0454 20.2318C12.0454 19.5859 11.871 19.0694 11.5224 18.6822C11.1738 18.2952 10.7098 18.1016 10.1304 18.1016C9.42288 18.1016 8.8717 18.4196 8.47698 19.0553L6.46975 19.0245L7.53873 12.7567H13.7142V12.7566Z" fill="white"/><path d="M15.9167 21.1776H18.0392C18.2135 22.0493 18.7185 22.485 19.5542 22.485C20.0258 22.485 20.409 22.3248 20.7039 22.0043C20.9987 21.684 21.2255 21.1853 21.3845 20.5086C21.487 20.078 21.5614 19.5884 21.6076 19.0397C21.264 19.5218 20.9117 19.8639 20.5501 20.0663C20.1887 20.269 19.7489 20.3702 19.2312 20.3702C18.4057 20.3702 17.6879 20.1293 17.0779 19.6472C16.6523 19.3088 16.3203 18.8705 16.082 18.3322C15.8435 17.7938 15.7244 17.2094 15.7244 16.5788C15.7244 15.3125 16.1575 14.287 17.024 13.5026C17.7674 12.8258 18.6595 12.4874 19.7003 12.4874C20.3411 12.4874 20.9333 12.6311 21.4769 12.9181C22.0202 13.2053 22.4766 13.6129 22.8458 14.1409C23.4968 15.0791 23.8224 16.3969 23.8224 18.0938C23.8224 19.6627 23.5352 21.0008 22.9611 22.1082C22.2125 23.549 21.0794 24.2692 19.562 24.2692C18.5519 24.2692 17.7174 23.9898 17.0587 23.4309C16.3999 22.8722 16.0192 22.1211 15.9167 21.1776ZM19.6542 14.387C19.1722 14.387 18.7646 14.5844 18.4314 14.9792C18.0981 15.3791 17.9315 15.8867 17.9315 16.5019C17.9315 16.9993 18.0519 17.4401 18.293 17.8247C18.621 18.3528 19.0824 18.6168 19.6772 18.6168C20.2156 18.6168 20.6462 18.4015 20.9693 17.9708C21.2717 17.5659 21.423 17.084 21.423 16.5251C21.423 15.9356 21.2666 15.4357 20.9539 15.0254C20.6257 14.5997 20.1926 14.387 19.6542 14.387Z" fill="white"/><path d="M8.03591 6L7.28839 8.24865H6.73009L5.99329 6H6.50704L7.01306 7.6842L7.52681 6H8.03591Z" fill="white"/><path d="M8.87413 6.5229C9.11818 6.5229 9.3176 6.6039 9.47248 6.7659C9.62525 6.92588 9.70168 7.13918 9.70168 7.40573C9.70168 7.68158 9.62015 7.90148 9.4571 8.06558C9.30433 8.21835 9.10543 8.29478 8.86033 8.29478C8.59888 8.29478 8.39068 8.20965 8.23588 8.03948C8.0882 7.87748 8.0144 7.66725 8.0144 7.40888C8.0144 7.15455 8.08618 6.94793 8.22973 6.789C8.38865 6.61163 8.60345 6.5229 8.87413 6.5229ZM8.8511 6.87053C8.7332 6.87053 8.63938 6.91823 8.56963 7.01355C8.4989 7.10993 8.4635 7.2417 8.4635 7.40888C8.4635 7.5822 8.49838 7.71495 8.56813 7.80728C8.6399 7.90058 8.73785 7.94723 8.8619 7.94723C8.97778 7.94723 9.06958 7.9047 9.13723 7.81958C9.2141 7.72523 9.25258 7.58835 9.25258 7.40888C9.25258 7.24073 9.21875 7.11 9.15103 7.0167C9.0803 6.91928 8.98033 6.87053 8.8511 6.87053Z" fill="white"/><path d="M10.4491 6V6.40147H10.0031V6H10.4491ZM10.4491 6.57217V8.24873H10.0031V6.57217H10.4491Z" fill="white"/><path d="M12.321 7.72575C12.2975 7.8201 12.2549 7.90875 12.1934 7.99185C12.0457 8.19382 11.8334 8.29485 11.5566 8.29485C11.3064 8.29485 11.1059 8.21587 10.9552 8.058C10.8814 7.98112 10.825 7.88827 10.786 7.7796C10.7439 7.66372 10.7229 7.54275 10.7229 7.4166C10.7229 7.17255 10.7932 6.9675 10.9337 6.80137C11.0906 6.61575 11.2936 6.52297 11.5427 6.52297C11.7437 6.52297 11.915 6.585 12.0565 6.70905C12.158 6.79822 12.2318 6.90825 12.278 7.03897C12.3241 7.1697 12.3472 7.33402 12.3472 7.53195H11.1767C11.1809 7.614 11.1937 7.68217 11.2152 7.73655C11.2757 7.88317 11.3906 7.95652 11.5598 7.95652C11.6428 7.95652 11.7105 7.9383 11.7628 7.90192C11.8151 7.86555 11.8581 7.80682 11.892 7.72582H12.321V7.72575ZM11.8919 7.23202C11.8838 7.15102 11.8653 7.08382 11.8366 7.0305C11.8079 6.97822 11.7671 6.93667 11.7143 6.90592C11.6615 6.87517 11.6039 6.8598 11.5413 6.8598C11.4419 6.8598 11.3598 6.8931 11.2952 6.95977C11.2307 7.02645 11.1922 7.1172 11.1799 7.23202H11.8919Z" fill="white"/></svg>

<svg class="color-immutable" width="30" height="30" viewBox="0 0 30 30" fill="none" xmlns="http://www.w3.org/2000/svg"><g clip-path="url(#a)"><path d="M30 0H0v30h30V0Z" fill="#2D327D"/><path d="M25.5 3c.825 0 1.5.675 1.5 1.5v21c0 .825-.675 1.5-1.5 1.5h-21c-.825 0-1.5-.675-1.5-1.5v-21C3 3.675 3.675 3 4.5 3h21Zm0-.375h-21A1.877 1.877 0 0 0 2.625 4.5v21c0 1.034.841 1.875 1.875 1.875h21a1.877 1.877 0 0 0 1.875-1.875v-21A1.877 1.877 0 0 0 25.5 2.625Z" fill="#fff"/><path d="M13.714 12.757v2h-4.53l-.484 2.53c.543-.575 1.238-.862 2.084-.862.83 0 1.554.223 2.169.67.912.67 1.369 1.691 1.369 3.06 0 1.343-.487 2.407-1.461 3.191-.76.616-1.667.923-2.723.923-1.19 0-2.145-.319-2.868-.957-.723-.638-1.105-1.501-1.146-2.588H8.33c.036.395.164.73.384 1.008.344.435.82.653 1.43.653.59 0 1.057-.213 1.4-.638.334-.415.5-.92.5-1.515 0-.646-.174-1.163-.523-1.55-.348-.387-.812-.58-1.392-.58-.707 0-1.258.318-1.653.953l-2.007-.03 1.069-6.268h6.175ZM15.917 21.178h2.122c.174.871.68 1.307 1.515 1.307.472 0 .855-.16 1.15-.48.295-.321.521-.82.68-1.496.103-.431.177-.92.224-1.47-.344.483-.696.825-1.058 1.027-.361.203-.801.304-1.319.304-.825 0-1.543-.24-2.153-.723a3.408 3.408 0 0 1-.996-1.315 4.28 4.28 0 0 1-.358-1.753c0-1.267.433-2.292 1.3-3.076.743-.677 1.636-1.016 2.676-1.016.641 0 1.233.144 1.777.431.543.287 1 .695 1.369 1.223.65.938.976 2.256.976 3.953 0 1.569-.287 2.907-.86 4.014-.75 1.441-1.883 2.161-3.4 2.161-1.01 0-1.845-.28-2.503-.838-.66-.559-1.04-1.31-1.142-2.253Zm3.737-6.791c-.482 0-.89.197-1.223.592-.333.4-.5.908-.5 1.523 0 .497.12.938.362 1.323.328.528.79.792 1.384.792.539 0 .97-.216 1.292-.646.303-.405.454-.887.454-1.446 0-.59-.156-1.09-.47-1.5a1.561 1.561 0 0 0-1.299-.638ZM8.036 6l-.748 2.249H6.73L5.993 6h.514l.506 1.684L7.527 6h.509ZM8.874 6.523c.244 0 .444.08.598.243.153.16.23.373.23.64 0 .276-.082.495-.245.66a.807.807 0 0 1-.597.229c-.261 0-.47-.085-.624-.256-.148-.162-.222-.372-.222-.63 0-.254.072-.461.216-.62.159-.177.373-.266.644-.266Zm-.023.348a.331.331 0 0 0-.281.143.656.656 0 0 0-.107.395c0 .173.035.306.105.398a.35.35 0 0 0 .294.14.333.333 0 0 0 .275-.127c.077-.095.116-.232.116-.411 0-.168-.034-.299-.102-.392a.349.349 0 0 0-.3-.146ZM10.45 6v.401h-.447V6h.446Zm0 .572V8.25h-.447V6.572h.446ZM12.321 7.726a.75.75 0 0 1-.128.266c-.147.202-.36.303-.636.303-.25 0-.451-.08-.602-.237a.773.773 0 0 1-.169-.278 1.055 1.055 0 0 1-.063-.363c0-.244.07-.45.21-.616a.76.76 0 0 1 .61-.278c.2 0 .372.062.514.186.101.09.175.2.221.33.046.13.07.295.07.493h-1.171c.004.082.017.15.038.205.06.146.176.22.345.22.083 0 .15-.019.203-.055a.39.39 0 0 0 .129-.176h.429Zm-.43-.494a.537.537 0 0 0-.054-.202.337.337 0 0 0-.295-.17c-.1 0-.182.033-.247.1a.447.447 0 0 0-.115.272h.712Z" fill="#fff"/></g><defs><clipPath id="a"><path fill="#fff" d="M0 0h30v30H0z"/></clipPath></defs></svg>
